X: 34658
T: Road To Boston
R: polka
M: 2/4
K: Dmajor
|:df aa|ge e2|cd ef|d2 d2|
df aa|ge ec|cd ef|1 d2 d2:|2 d2 de||
|:fa af/a/|ba gf|eg gb|ag fe|
df fd/f/|gf ed|cd ef|1 d2 de:|2 d2 d2||

